X:2053
T:Branle de Bourgogne
C:trad
M:2/2
L:1/4
Q:1/4=210
K:G
B>A Gd|cBAG|G/2A/2 BAG|G/2A/2B G/2A/2B|
G/2A/2 BAG|B>A Gd|cBAG|GFG2:|
|:d2e>d|cBAG|G/2A/2 BAG|G/2A/2B G/2A/2B|
G/2A/2 BAG|d2e>d|cBAG|GFG2:|


